; Generated by Conception Slicer v0.1
G21 ; units in mm
G90 ; absolute coordinates
G92 E0
; --- Layer Z=0.000 ---
G0 Z0.000 F6000
G0 X0.000 Y20.000 F6000
G1 X0.000 Y0.000 E0.66520 F1200
G1 X0.001 Y0.000 E0.66523 F1200
G1 X0.002 Y0.000 E0.66526 F1200
G1 X20.000 Y0.000 E1.33038 F1200
G1 X20.000 Y0.000 E1.33041 F1200
G1 X20.000 Y0.001 E1.33043 F1200
G1 X20.000 Y20.000 E1.99558 F1200
G1 X20.000 Y20.000 E1.99561 F1200
G1 X0.000 Y20.000 E2.66081 F1200
; --- Layer Z=0.200 ---
G0 Z0.200 F6000
G0 X0.000 Y20.000 F6000
G1 X0.000 Y19.800 E2.66746 F1200
G1 X0.000 Y0.000 E3.32601 F1200
G1 X0.066 Y0.000 E3.32820 F1200
G1 X0.275 Y0.000 E3.33514 F1200
G1 X0.363 Y0.000 E3.33807 F1200
G1 X0.683 Y0.000 E3.34871 F1200
G1 X19.594 Y0.000 E3.97770 F1200
G1 X19.691 Y0.000 E3.98092 F1200
G1 X19.926 Y0.000 E3.98874 F1200
G1 X20.000 Y0.000 E3.99122 F1200
G1 X20.000 Y0.060 E3.99318 F1200
G1 X20.000 Y0.191 E3.99755 F1200
G1 X20.000 Y0.479 E4.00713 F1200
G1 X20.000 Y0.567 E4.01005 F1200
G1 X20.000 Y19.489 E4.63942 F1200
G1 X20.000 Y19.793 E4.64953 F1200
G1 X20.000 Y19.930 E4.65408 F1200
G1 X20.000 Y20.000 E4.65642 F1200
G1 X0.200 Y20.000 E5.31497 F1200
G1 X0.000 Y20.000 E5.32162 F1200
; --- Layer Z=0.400 ---
G0 Z0.400 F6000
G0 X0.000 Y20.000 F6000
G1 X0.000 Y19.600 E5.33493 F1200
G1 X0.000 Y0.000 E5.98682 F1200
G1 X0.132 Y0.000 E5.99121 F1200
G1 X0.548 Y0.000 E6.00505 F1200
G1 X0.724 Y0.000 E6.01090 F1200
G1 X1.364 Y0.000 E6.03216 F1200
G1 X19.188 Y0.000 E6.62502 F1200
G1 X19.382 Y0.000 E6.63146 F1200
G1 X19.852 Y0.000 E6.64710 F1200
G1 X20.000 Y0.000 E6.65203 F1200
G1 X20.000 Y0.119 E6.65596 F1200
G1 X20.000 Y0.382 E6.66472 F1200
G1 X20.000 Y0.956 E6.68382 F1200
G1 X20.000 Y1.132 E6.68968 F1200
G1 X20.000 Y18.978 E7.28322 F1200
G1 X20.000 Y19.586 E7.30345 F1200
G1 X20.000 Y19.859 E7.31252 F1200
G1 X20.000 Y20.000 E7.31723 F1200
G1 X0.401 Y20.000 E7.96910 F1200
G1 X0.000 Y20.000 E7.98243 F1200
; --- Layer Z=0.600 ---
G0 Z0.600 F6000
G0 X0.000 Y20.000 F6000
G1 X0.000 Y19.400 E8.00239 F1200
G1 X0.000 Y0.000 E8.64763 F1200
G1 X0.198 Y0.000 E8.65421 F1200
G1 X0.823 Y0.000 E8.67499 F1200
G1 X1.085 Y0.000 E8.68372 F1200
G1 X2.045 Y0.000 E8.71564 F1200
G1 X18.783 Y0.000 E9.27234 F1200
G1 X19.073 Y0.000 E9.28200 F1200
G1 X19.779 Y0.000 E9.30547 F1200
G1 X20.000 Y0.000 E9.31284 F1200
G1 X20.000 Y0.178 E9.31874 F1200
G1 X20.000 Y0.572 E9.33186 F1200
G1 X20.000 Y1.433 E9.36049 F1200
G1 X20.000 Y1.698 E9.36930 F1200
G1 X20.000 Y18.468 E9.92706 F1200
G1 X20.000 Y19.380 E9.95739 F1200
G1 X20.000 Y19.788 E9.97099 F1200
G1 X20.000 Y20.000 E9.97804 F1200
G1 X0.600 Y20.000 E10.62329 F1200
G1 X0.000 Y20.000 E10.64324 F1200
; --- Layer Z=0.800 ---
G0 Z0.800 F6000
G0 X0.000 Y20.000 F6000
G1 X0.000 Y19.200 E10.66985 F1200
G1 X0.000 Y0.000 E11.30845 F1200
G1 X0.264 Y0.000 E11.31720 F1200
G1 X1.096 Y0.000 E11.34490 F1200
G1 X1.447 Y0.000 E11.35655 F1200
G1 X2.726 Y0.000 E11.39910 F1200
G1 X18.377 Y0.000 E11.91966 F1200
G1 X18.764 Y0.000 E11.93254 F1200
G1 X19.704 Y0.000 E11.96380 F1200
G1 X20.000 Y0.000 E11.97365 F1200
G1 X20.000 Y0.237 E11.98152 F1200
G1 X20.000 Y0.763 E11.99901 F1200
G1 X20.000 Y1.911 E12.03719 F1200
G1 X20.000 Y2.264 E12.04892 F1200
G1 X20.000 Y17.957 E12.57089 F1200
G1 X20.000 Y19.172 E12.61131 F1200
G1 X20.000 Y19.718 E12.62946 F1200
G1 X20.000 Y20.000 E12.63885 F1200
G1 X0.801 Y20.000 E13.27742 F1200
G1 X0.000 Y20.000 E13.30405 F1200
; --- Layer Z=1.000 ---
G0 Z1.000 F6000
G0 X0.000 Y20.000 F6000
G1 X0.000 Y19.000 E13.33731 F1200
G1 X0.000 Y0.000 E13.96926 F1200
G1 X0.329 Y0.000 E13.98019 F1200
G1 X1.370 Y0.000 E14.01481 F1200
G1 X1.808 Y0.000 E14.02939 F1200
G1 X3.408 Y0.000 E14.08258 F1200
G1 X17.972 Y0.000 E14.56698 F1200
G1 X18.456 Y0.000 E14.58308 F1200
G1 X19.631 Y0.000 E14.62217 F1200
G1 X20.000 Y0.000 E14.63446 F1200
G1 X20.000 Y0.296 E14.64430 F1200
G1 X20.000 Y0.953 E14.66615 F1200
G1 X20.000 Y2.388 E14.71388 F1200
G1 X20.000 Y2.828 E14.72852 F1200
G1 X20.000 Y17.447 E15.21473 F1200
G1 X20.000 Y18.965 E15.26523 F1200
G1 X20.000 Y19.648 E15.28793 F1200
G1 X20.000 Y20.000 E15.29966 F1200
G1 X1.000 Y20.000 E15.93160 F1200
G1 X0.000 Y20.000 E15.96486 F1200
; --- Layer Z=1.200 ---
G0 Z1.200 F6000
G0 X0.000 Y20.000 F6000
G1 X0.000 Y18.800 E16.00478 F1200
G1 X0.000 Y0.000 E16.63007 F1200
G1 X0.396 Y0.000 E16.64321 F1200
G1 X1.644 Y0.000 E16.68475 F1200
G1 X2.170 Y0.000 E16.70223 F1200
G1 X4.088 Y0.000 E16.76603 F1200
G1 X17.566 Y0.000 E17.21430 F1200
G1 X18.147 Y0.000 E17.23362 F1200
G1 X19.556 Y0.000 E17.28050 F1200
G1 X20.000 Y0.000 E17.29527 F1200
G1 X20.000 Y0.356 E17.30711 F1200
G1 X20.000 Y1.144 E17.33329 F1200
G1 X20.000 Y2.866 E17.39058 F1200
G1 X20.000 Y3.394 E17.40814 F1200
G1 X20.000 Y16.936 E17.85856 F1200
G1 X20.000 Y18.759 E17.91918 F1200
G1 X20.000 Y19.576 E17.94637 F1200
G1 X20.000 Y20.000 E17.96047 F1200
G1 X1.200 Y20.000 E18.58576 F1200
G1 X0.000 Y20.000 E18.62567 F1200
; --- Layer Z=1.400 ---
G0 Z1.400 F6000
G0 X0.000 Y20.000 F6000
G1 X0.000 Y18.600 E18.67224 F1200
G1 X0.000 Y0.000 E19.29088 F1200
G1 X0.461 Y0.000 E19.30620 F1200
G1 X1.918 Y0.000 E19.35466 F1200
G1 X2.532 Y0.000 E19.37507 F1200
G1 X4.769 Y0.000 E19.44949 F1200
G1 X17.160 Y0.000 E19.86162 F1200
G1 X17.838 Y0.000 E19.88416 F1200
G1 X19.483 Y0.000 E19.93886 F1200
G1 X20.000 Y0.000 E19.95608 F1200
G1 X20.000 Y0.416 E19.96989 F1200
G1 X20.000 Y1.334 E20.00044 F1200
G1 X20.000 Y3.343 E20.06725 F1200
G1 X20.000 Y3.960 E20.08776 F1200
G1 X20.000 Y16.426 E20.50240 F1200
G1 X20.000 Y18.552 E20.57310 F1200
G1 X20.000 Y19.506 E20.60484 F1200
G1 X20.000 Y20.000 E20.62128 F1200
G1 X1.401 Y20.000 E21.23989 F1200
G1 X0.000 Y20.000 E21.28648 F1200
; --- Layer Z=1.600 ---
G0 Z1.600 F6000
G0 X0.000 Y20.000 F6000
G1 X0.000 Y18.400 E21.33970 F1200
G1 X0.000 Y0.000 E21.95169 F1200
G1 X0.527 Y0.000 E21.96920 F1200
G1 X2.192 Y0.000 E22.02457 F1200
G1 X2.893 Y0.000 E22.04790 F1200
G1 X5.451 Y0.000 E22.13297 F1200
G1 X16.755 Y0.000 E22.50894 F1200
G1 X17.529 Y0.000 E22.53470 F1200
G1 X19.408 Y0.000 E22.59720 F1200
G1 X20.000 Y0.000 E22.61689 F1200
G1 X20.000 Y0.475 E22.63267 F1200
G1 X20.000 Y1.524 E22.66758 F1200
G1 X20.000 Y3.820 E22.74394 F1200
G1 X20.000 Y4.525 E22.76739 F1200
G1 X20.000 Y15.915 E23.14621 F1200
G1 X20.000 Y18.344 E23.22701 F1200
G1 X20.000 Y19.436 E23.26331 F1200
G1 X20.000 Y20.000 E23.28209 F1200
G1 X1.600 Y20.000 E23.89408 F1200
G1 X0.000 Y20.000 E23.94730 F1200
; --- Layer Z=1.800 ---
G0 Z1.800 F6000
G0 X0.000 Y20.000 F6000
G1 X0.000 Y18.200 E24.00716 F1200
G1 X0.000 Y0.000 E24.61250 F1200
G1 X0.592 Y0.000 E24.63219 F1200
G1 X2.466 Y0.000 E24.69450 F1200
G1 X3.255 Y0.000 E24.72074 F1200
G1 X6.132 Y0.000 E24.81642 F1200
G1 X16.349 Y0.000 E25.15626 F1200
G1 X17.220 Y0.000 E25.18524 F1200
G1 X19.335 Y0.000 E25.25556 F1200
G1 X20.000 Y0.000 E25.27770 F1200
G1 X20.000 Y0.534 E25.29545 F1200
G1 X20.000 Y1.715 E25.33472 F1200
G1 X20.000 Y4.298 E25.42064 F1200
G1 X20.000 Y5.091 E25.44701 F1200
G1 X20.000 Y15.404 E25.79004 F1200
G1 X20.000 Y18.138 E25.88096 F1200
G1 X20.000 Y19.364 E25.92175 F1200
G1 X20.000 Y20.000 E25.94290 F1200
G1 X1.800 Y20.000 E26.54824 F1200
G1 X0.000 Y20.000 E26.60811 F1200
; --- Layer Z=2.000 ---
G0 Z2.000 F6000
G0 X0.000 Y20.000 F6000
G1 X0.000 Y18.000 E26.67463 F1200
G1 X0.000 Y0.000 E27.27331 F1200
G1 X0.658 Y0.000 E27.29518 F1200
G1 X2.740 Y0.000 E27.36442 F1200
G1 X3.616 Y0.000 E27.39355 F1200
G1 X6.813 Y0.000 E27.49990 F1200
G1 X15.944 Y0.000 E27.80358 F1200
G1 X16.912 Y0.000 E27.83578 F1200
G1 X19.261 Y0.000 E27.91393 F1200
G1 X20.000 Y0.000 E27.93851 F1200
G1 X20.000 Y0.593 E27.95823 F1200
G1 X20.000 Y1.905 E28.00187 F1200
G1 X20.000 Y4.775 E28.09731 F1200
G1 X20.000 Y5.656 E28.12660 F1200
G1 X20.000 Y14.894 E28.43387 F1200
G1 X20.000 Y17.931 E28.53488 F1200
G1 X20.000 Y19.294 E28.58022 F1200
G1 X20.000 Y20.000 E28.60371 F1200
G1 X2.001 Y20.000 E29.20237 F1200
G1 X0.000 Y20.000 E29.26892 F1200
; --- Layer Z=2.200 ---
G0 Z2.200 F6000
G0 X0.000 Y20.000 F6000
G1 X0.000 Y17.800 E29.34209 F1200
G1 X0.000 Y0.000 E29.93412 F1200
G1 X0.724 Y0.000 E29.95820 F1200
G1 X3.013 Y0.000 E30.03433 F1200
G1 X3.977 Y0.000 E30.06639 F1200
G1 X7.494 Y0.000 E30.18336 F1200
G1 X15.538 Y0.000 E30.45090 F1200
G1 X16.603 Y0.000 E30.48632 F1200
G1 X19.187 Y0.000 E30.57226 F1200
G1 X20.000 Y0.000 E30.59932 F1200
G1 X20.000 Y0.652 E30.62101 F1200
G1 X20.000 Y2.096 E30.66901 F1200
G1 X20.000 Y5.252 E30.77400 F1200
G1 X20.000 Y6.221 E30.80623 F1200
G1 X20.000 Y14.384 E31.07771 F1200
G1 X20.000 Y17.724 E31.18880 F1200
G1 X20.000 Y19.224 E31.23869 F1200
G1 X20.000 Y20.000 E31.26452 F1200
G1 X2.201 Y20.000 E31.85653 F1200
G1 X0.000 Y20.000 E31.92973 F1200
; --- Layer Z=2.400 ---
G0 Z2.400 F6000
G0 X0.000 Y20.000 F6000
G1 X0.000 Y17.600 E32.00955 F1200
G1 X0.000 Y0.000 E32.59493 F1200
G1 X0.790 Y0.000 E32.62119 F1200
G1 X3.287 Y0.000 E32.70424 F1200
G1 X4.339 Y0.000 E32.73923 F1200
G1 X8.175 Y0.000 E32.86681 F1200
G1 X15.132 Y0.000 E33.09822 F1200
G1 X16.294 Y0.000 E33.13686 F1200
G1 X19.113 Y0.000 E33.23062 F1200
G1 X20.000 Y0.000 E33.26013 F1200
G1 X20.000 Y0.712 E33.28379 F1200
G1 X20.000 Y2.286 E33.33615 F1200
G1 X20.000 Y5.730 E33.45070 F1200
G1 X20.000 Y6.787 E33.48585 F1200
G1 X20.000 Y13.873 E33.72154 F1200
G1 X20.000 Y17.517 E33.84274 F1200
G1 X20.000 Y19.153 E33.89716 F1200
G1 X20.000 Y20.000 E33.92534 F1200
G1 X2.400 Y20.000 E34.51071 F1200
G1 X0.000 Y20.000 E34.59054 F1200
; --- Layer Z=2.600 ---
G0 Z2.600 F6000
G0 X0.000 Y20.000 F6000
G1 X0.000 Y17.400 E34.67701 F1200
G1 X0.000 Y0.000 E35.25574 F1200
G1 X0.856 Y0.000 E35.28418 F1200
G1 X3.561 Y0.000 E35.37417 F1200
G1 X4.700 Y0.000 E35.41206 F1200
G1 X8.856 Y0.000 E35.55029 F1200
G1 X14.727 Y0.000 E35.74554 F1200
G1 X15.985 Y0.000 E35.78740 F1200
G1 X19.039 Y0.000 E35.88896 F1200
G1 X20.000 Y0.000 E35.92094 F1200
G1 X20.000 Y0.771 E35.94657 F1200
G1 X20.000 Y2.476 E36.00330 F1200
G1 X20.000 Y6.208 E36.12740 F1200
G1 X20.000 Y7.352 E36.16547 F1200
G1 X20.000 Y13.363 E36.36538 F1200
G1 X20.000 Y17.310 E36.49666 F1200
G1 X20.000 Y19.082 E36.55560 F1200
G1 X20.000 Y20.000 E36.58615 F1200
G1 X2.600 Y20.000 E37.16487 F1200
G1 X0.000 Y20.000 E37.25135 F1200
; --- Layer Z=2.800 ---
G0 Z2.800 F6000
G0 X0.000 Y20.000 F6000
G1 X0.000 Y17.200 E37.34448 F1200
G1 X0.000 Y0.000 E37.91655 F1200
G1 X0.921 Y0.000 E37.94718 F1200
G1 X3.835 Y0.000 E38.04408 F1200
G1 X5.062 Y0.000 E38.08490 F1200
G1 X9.537 Y0.000 E38.23375 F1200
G1 X14.321 Y0.000 E38.39286 F1200
G1 X15.676 Y0.000 E38.43794 F1200
G1 X18.965 Y0.000 E38.54732 F1200
G1 X20.000 Y0.000 E38.58175 F1200
G1 X20.000 Y0.830 E38.60935 F1200
G1 X20.000 Y2.667 E38.67044 F1200
G1 X20.000 Y6.684 E38.80406 F1200
G1 X20.000 Y7.918 E38.84509 F1200
G1 X20.000 Y12.852 E39.00921 F1200
G1 X20.000 Y17.103 E39.15058 F1200
G1 X20.000 Y19.012 E39.21407 F1200
G1 X20.000 Y20.000 E39.24696 F1200
G1 X2.800 Y20.000 E39.81903 F1200
G1 X0.000 Y20.000 E39.91216 F1200
; --- Layer Z=3.000 ---
G0 Z3.000 F6000
G0 X0.000 Y20.000 F6000
G1 X0.000 Y17.000 E40.01194 F1200
G1 X0.000 Y0.000 E40.57736 F1200
G1 X0.988 Y0.000 E40.61020 F1200
G1 X4.108 Y0.000 E40.71399 F1200
G1 X5.424 Y0.000 E40.75774 F1200
G1 X10.219 Y0.000 E40.91723 F1200
G1 X13.916 Y0.000 E41.04018 F1200
G1 X15.368 Y0.000 E41.08848 F1200
G1 X18.891 Y0.000 E41.20566 F1200
G1 X20.000 Y0.000 E41.24256 F1200
G1 X20.000 Y0.889 E41.27213 F1200
G1 X20.000 Y2.857 E41.33758 F1200
G1 X20.000 Y7.162 E41.48076 F1200
G1 X20.000 Y8.483 E41.52469 F1200
G1 X20.000 Y12.341 E41.65302 F1200
G1 X20.000 Y16.896 E41.80453 F1200
G1 X20.000 Y18.941 E41.87254 F1200
G1 X20.000 Y20.000 E41.90777 F1200
G1 X3.001 Y20.000 E42.47316 F1200
G1 X0.000 Y20.000 E42.57297 F1200
; --- Layer Z=3.200 ---
G0 Z3.200 F6000
G0 X0.000 Y20.000 F6000
G1 X0.000 Y16.800 E42.67940 F1200
G1 X0.000 Y0.000 E43.23817 F1200
G1 X1.053 Y0.000 E43.27319 F1200
G1 X4.383 Y0.000 E43.38393 F1200
G1 X5.785 Y0.000 E43.43058 F1200
G1 X10.900 Y0.000 E43.60068 F1200
G1 X13.510 Y0.000 E43.68750 F1200
G1 X15.059 Y0.000 E43.73902 F1200
G1 X18.817 Y0.000 E43.86402 F1200
G1 X20.000 Y0.000 E43.90338 F1200
G1 X20.000 Y0.948 E43.93491 F1200
G1 X20.000 Y3.048 E44.00473 F1200
G1 X20.000 Y7.640 E44.15746 F1200
G1 X20.000 Y9.048 E44.20431 F1200
G1 X20.000 Y11.831 E44.29686 F1200
G1 X20.000 Y16.689 E44.45845 F1200
G1 X20.000 Y18.871 E44.53101 F1200
G1 X20.000 Y20.000 E44.56858 F1200
G1 X3.201 Y20.000 E45.12732 F1200
G1 X0.000 Y20.000 E45.23378 F1200
; --- Layer Z=3.400 ---
G0 Z3.400 F6000
G0 X0.000 Y20.000 F6000
G1 X0.000 Y16.600 E45.34687 F1200
G1 X0.000 Y0.000 E45.89898 F1200
G1 X1.119 Y0.000 E45.93618 F1200
G1 X4.656 Y0.000 E46.05384 F1200
G1 X6.146 Y0.000 E46.10339 F1200
G1 X11.580 Y0.000 E46.28414 F1200
G1 X13.104 Y0.000 E46.33482 F1200
G1 X14.750 Y0.000 E46.38956 F1200
G1 X18.744 Y0.000 E46.52238 F1200
G1 X20.000 Y0.000 E46.56419 F1200
G1 X20.000 Y1.008 E46.59769 F1200
G1 X20.000 Y3.238 E46.67187 F1200
G1 X20.000 Y8.116 E46.83413 F1200
G1 X20.000 Y9.614 E46.88394 F1200
G1 X20.000 Y11.320 E46.94069 F1200
G1 X20.000 Y16.482 E47.11237 F1200
G1 X20.000 Y18.800 E47.18945 F1200
G1 X20.000 Y20.000 E47.22939 F1200
G1 X3.400 Y20.000 E47.78151 F1200
G1 X0.000 Y20.000 E47.89459 F1200
; --- Layer Z=3.600 ---
G0 Z3.600 F6000
G0 X0.000 Y20.000 F6000
G1 X0.000 Y16.400 E48.01433 F1200
G1 X0.000 Y0.000 E48.55979 F1200
G1 X1.184 Y0.000 E48.59917 F1200
G1 X4.930 Y0.000 E48.72375 F1200
G1 X6.508 Y0.000 E48.77622 F1200
G1 X12.262 Y0.000 E48.96762 F1200
G1 X12.699 Y0.000 E48.98214 F1200
G1 X14.441 Y0.000 E49.04010 F1200
G1 X18.669 Y0.000 E49.18072 F1200
G1 X20.000 Y0.000 E49.22500 F1200
G1 X20.000 Y1.067 E49.26047 F1200
G1 X20.000 Y3.428 E49.33901 F1200
G1 X20.000 Y8.594 E49.51082 F1200
G1 X20.000 Y10.180 E49.56356 F1200
G1 X20.000 Y10.810 E49.58453 F1200
G1 X20.000 Y16.276 E49.76631 F1200
G1 X20.000 Y18.729 E49.84792 F1200
G1 X20.000 Y20.000 E49.89020 F1200
G1 X3.600 Y20.000 E50.43567 F1200
G1 X0.000 Y20.000 E50.55540 F1200
; --- Layer Z=3.800 ---
G0 Z3.800 F6000
G0 X0.000 Y20.000 F6000
G1 X0.000 Y16.200 E50.68179 F1200
G1 X0.000 Y0.000 E51.22060 F1200
G1 X1.250 Y0.000 E51.26217 F1200
G1 X5.043 Y0.000 E51.38832 F1200
G1 X5.107 Y0.000 E51.39044 F1200
G1 X5.107 Y0.036 E51.39161 F1200
G1 X5.108 Y1.892 E51.45335 F1200
G1 X6.690 Y1.892 E51.50598 F1200
G1 X6.725 Y1.892 E51.50715 F1200
G1 X6.724 Y0.047 E51.56851 F1200
G1 X6.724 Y0.000 E51.57005 F1200
G1 X12.463 Y0.000 E51.76091 F1200
G1 X12.463 Y0.047 E51.76245 F1200
G1 X12.462 Y1.892 E51.82381 F1200
G1 X12.493 Y1.892 E51.82485 F1200
G1 X14.240 Y1.892 E51.88296 F1200
G1 X14.241 Y0.036 E51.94466 F1200
G1 X14.241 Y0.000 E51.94586 F1200
G1 X14.315 Y0.000 E51.94831 F1200
G1 X18.596 Y0.000 E52.09069 F1200
G1 X20.000 Y0.000 E52.13741 F1200
G1 X20.000 Y1.126 E52.17485 F1200
G1 X20.000 Y3.619 E52.25776 F1200
G1 X20.000 Y8.829 E52.43106 F1200
G1 X18.089 Y8.828 E52.49463 F1200
G1 X18.055 Y8.828 E52.49577 F1200
G1 X18.055 Y8.858 E52.49676 F1200
G1 X18.054 Y10.509 E52.55168 F1200
G1 X18.082 Y10.509 E52.55261 F1200
G1 X20.000 Y10.510 E52.61641 F1200
G1 X20.000 Y16.068 E52.80129 F1200
G1 X20.000 Y18.659 E52.88744 F1200
G1 X20.000 Y20.000 E52.93206 F1200
G1 X3.800 Y20.000 E53.47088 F1200
G1 X0.000 Y20.000 E53.59727 F1200
; --- Layer Z=4.000 ---
G0 Z4.000 F6000
G0 X0.000 Y20.000 F6000
G1 X0.000 Y16.000 E53.73031 F1200
G1 X0.000 Y0.000 E54.26247 F1200
G1 X1.316 Y0.000 E54.30624 F1200
G1 X5.046 Y0.000 E54.43029 F1200
G1 X5.218 Y0.000 E54.43601 F1200
G1 X5.218 Y0.096 E54.43917 F1200
G1 X5.219 Y1.892 E54.49891 F1200
G1 X6.751 Y1.892 E54.54986 F1200
G1 X6.844 Y1.892 E54.55295 F1200
G1 X6.843 Y0.124 E54.61173 F1200
G1 X6.843 Y0.000 E54.61585 F1200
G1 X12.341 Y0.000 E54.79873 F1200
G1 X12.341 Y0.124 E54.80285 F1200
G1 X12.340 Y1.892 E54.86163 F1200
G1 X12.423 Y1.892 E54.86440 F1200
G1 X14.114 Y1.892 E54.92065 F1200
G1 X14.115 Y0.096 E54.98036 F1200
G1 X14.115 Y0.000 E54.98355 F1200
G1 X14.312 Y0.000 E54.99010 F1200
G1 X18.521 Y0.000 E55.13011 F1200
G1 X20.000 Y0.000 E55.17931 F1200
G1 X20.000 Y1.186 E55.21874 F1200
G1 X20.000 Y3.809 E55.30599 F1200
G1 X20.000 Y8.827 E55.47287 F1200
G1 X18.160 Y8.826 E55.53407 F1200
G1 X18.056 Y8.826 E55.53756 F1200
G1 X18.056 Y8.916 E55.54056 F1200
